X:2701
L:1/8
Q:1/8=80
M:3/4
K:Amin
"^andante espressivo" AG | E2 A2 AB | c4 B2 | cB cd ec | d4 ed | cB cd e^f | g2 ag ed | e2 a2 ^g2 | 
 a4 g2 | f2 ed cA | A4 AB | c2 d2 eg | a4 g2 | f2 ed cA | G2 A2 cd | e2 dc A^G | A6 |]

